!!!OTL: 1632. Schneiders Wanderschaft. / [Neueres Lied.]
!!!ARE: Europa, Mitteleuropa, Deutschland, Hessen, Darmstadt
!!!SCT: E1632
!!!TXL: @@DE
!!!YEM: Copyright 1995, estate of Helmut Schaffrath.
**kern	**text
*ICvox	*
*M4/4	*
*met(c)	*
*k[f#]	*
*G:	*
!LO:TX:a:t=Mel. aus dem Darmſtädtiſchen.	!
{4d	Es
=1	=1
4.g	wollt
8d	ein
4B	Schneider
4d	.
=2	=2
(4g	wan-
4b)	.
4b}	-dern
{4dd	wol
=3	=3
4.a	auf
8g	ſein
4f#	Schneider-
4g	.
=4	=4
2a	-geiß;
4r}	.
!LO:TX:a:t=Refr.	!
{8g	[da
8a	be-
=5	=5
4b	-kam
4b	der-
8b	-ſel-
8b	-be
8dd	ei-
8dd	-nen
=6	=6
4cc	Ʒick
4a	ʒick
4a}	ʒick,
{8a	Und
8b	der
=7	=7
8cc	Ju-
8cc	-ckel
8cc	und
8cc	der
8cc	Bu-
8cc	-ckel
8ee	und
8ee	die
=8	=8
4dd	Feld-
4b	-mu-
4b}	-ſik!]
{4dd	"Wie
=9	=9
4ee	brennt
4cc	die
4cc	Sonn
4ee	ſo
=10	=10
2dd}	heiß
{2b	auf
=11	=11
(16ddqq	.
4cc)	mei-
4cc	-nen
4dd	Schneider-
8ddL	.
8ccJ	.
=12	=12
2b;	-geiß!"
4r}	.
==	==
!!!AGN: Staende -, Handwerker - Lied, Schneider; Wanderschaft
!!!ONB: ESAC (Essen Associative Code) Database: ERK3
!!!AMT: simple quadruple
!!!AIN: vox
!!!EED: Helmut Schaffrath
!!!EEV: 1.0
!!!GTL: Staendelieder (Berufslieder). 8. Handwerkerlieder.
!!!URL-scan: https://rosdok.uni-rostock.de/mcrviewer/recordIdentifier/rosdok_ppn745177999/iview2/phys_0451.iview2?x=-449.8344612962892&y=1383.269786428893&scale=0.47549036216460333&rotation=0&layout=singlePageLayout
!!!ENC: Anna Maria Matuszewska
!!!EEV: 2025/08/01
*-	*-
